src/static/logos/dreamhost.svg

<?xml version="1.0" encoding="UTF-8" standalone="no"?>
<svg width="256px" height="253px" viewBox="0 0 256 253" version="1.1" xmlns="http://www.w3.org/2000/svg" xmlns:xlink="http://www.w3.org/1999/xlink" preserveAspectRatio="xMidYMid">
	<g>
		<path d="M252.689635,189.792267 C231.947257,201.365268 207.866513,207.789767 182.267431,207.26552 C106.805531,205.747182 46.8484845,144.588324 48.3272568,70.6991649 C48.8564496,45.604547 56.3591172,22.3151194 69.0449065,2.50253777 C28.643264,25.0599978 1.0312712,67.2421019 0.0272886518,116.071263 C-1.46632085,189.970313 58.5401827,251.124225 134.021865,252.647509 C183.859955,253.661383 228.040132,228.393665 252.689635,189.792267" fill="#1F3244"></path>
		<path d="M180.943424,191.374899 C181.779252,191.389737 182.620025,191.404574 183.460799,191.404574 C203.154683,191.404574 222.581498,186.528087 239.851976,177.348818 C250.030282,159.900294 255.955263,139.647543 255.955263,117.96053 C255.955263,52.8253082 203.293164,0 138.316205,0 C117.831004,0 98.5772896,5.27214479 81.8112756,14.5058168 C70.9801339,31.9345581 65.0106416,51.9746432 64.5754177,72.5587582 C63.2895287,136.739455 115.48673,190.05439 180.943424,191.374899" fill="#3E95BE"></path>
	</g>
</svg>

<svg width="256" height="253" xmlns="http://www.w3.org/2000/svg" preserveAspectRatio="xMidYMid"><path d="M252.69 189.792c-20.743 11.573-44.823 17.998-70.423 17.474-75.461-1.519-135.419-62.678-133.94-136.567.53-25.094 8.032-48.384 20.718-68.196C28.643 25.06 1.03 67.243.027 116.07c-1.493 73.9 58.513 135.053 133.995 136.577 49.838 1.013 94.018-24.254 118.668-62.856" fill="#1F3244"/><path d="M180.943 191.375c.836.015 1.677.03 2.518.03 19.694 0 39.12-4.877 56.391-14.056 10.178-17.449 16.103-37.701 16.103-59.388C255.955 52.825 203.293 0 138.316 0c-20.485 0-39.739 5.272-56.505 14.506a114.556 114.556 0 00-17.236 58.053c-1.285 64.18 50.912 117.495 116.368 118.816" fill="#3E95BE"/></svg>
